hero/solid/ellipsis-horizontal-circle.svg

<svg width="24" height="24" viewBox="0 0 24 24" fill="none" xmlns="http://www.w3.org/2000/svg">
<path fill-rule="evenodd" clip-rule="evenodd" d="M12 2.25C6.61522 2.25 2.25 6.61522 2.25 12C2.25 17.3848 6.61522 21.75 12 21.75C17.3848 21.75 21.75 17.3848 21.75 12C21.75 6.61522 17.3848 2.25 12 2.25ZM12 10.875C11.3787 10.875 10.875 11.3787 10.875 12C10.875 12.6213 11.3787 13.125 12 13.125C12.6213 13.125 13.125 12.6213 13.125 12C13.125 11.3787 12.6213 10.875 12 10.875ZM15.375 12C15.375 11.3787 15.8787 10.875 16.5 10.875C17.1213 10.875 17.625 11.3787 17.625 12C17.625 12.6213 17.1213 13.125 16.5 13.125C15.8787 13.125 15.375 12.6213 15.375 12ZM7.5 10.875C6.87868 10.875 6.375 11.3787 6.375 12C6.375 12.6213 6.87868 13.125 7.5 13.125C8.12132 13.125 8.625 12.6213 8.625 12C8.625 11.3787 8.12132 10.875 7.5 10.875Z" fill="#0F172A"/>
</svg>

<svg viewBox="0 0 24 24" xmlns="http://www.w3.org/2000/svg"><path fill-rule="evenodd" d="M12 2.25c-5.385 0-9.75 4.36-9.75 9.75 0 5.38 4.36 9.75 9.75 9.75 5.38 0 9.75-4.37 9.75-9.75 0-5.39-4.37-9.75-9.75-9.75Zm0 8.625v0c-.63 0-1.125.5-1.125 1.125 0 .62.5 1.125 1.125 1.125v0c.62 0 1.125-.51 1.125-1.125 0-.63-.51-1.125-1.125-1.125ZM15.37 12h-.001c-.01-.63.5-1.13 1.12-1.13 .62-.01 1.12.5 1.12 1.12 0 0 0 0 0 0v0c0 .62-.51 1.125-1.125 1.125 -.63 0-1.125-.51-1.125-1.125Zm-7.88-1.13v0c-.63 0-1.125.5-1.125 1.125 0 .62.5 1.125 1.125 1.125v0c.62 0 1.125-.51 1.125-1.125 0-.63-.51-1.125-1.125-1.125Z"/></svg>
